X: 2112
T: Maggie Brown's Favourite
B: nick
B: steve tunes
M:6/8
Q: 3/8=100
K:Gmajor
V:1 
|:g|"G"dBG GAB|"C"E3 E2 c|"D"AFD DEF|"G"G3 G2 g|
 "G"dBG Bcd|"C"E3 E2 c|"D"AFD DEF|"G"G3 G2:|
 |:g/a/|"G"bgb "D/F#"afd|"C/E"efg gfe|"G/D"dBg dBG|"D"AFD D2 g/a/|
 "G"bgb "D"afd|"C"efg gfe|"D"faf "A"ge^c|"D"d3 "G7/B"de=f|
 |:"C"ece "G/B"dBd|"D7/A"cAc "G"BGB|"Am"Ace "G/B"dBG|"D7"F3 "D7/C"DEF|
 "G/B"GAB "C"EFG|"Am"ABc "D/F#"def|"G/B"gdB "D7"cAF|"G"G3 G2:|
% abcbook-tune_id 634561d016ecb98ace196994


% abcbook-boost 0
% abcbook-tablature 
% abcbook-transpose 
% abcbook-lastupdated 1666006775308
% abcbook-soundfonts 
% abcbook-repeats 3


